X:1
T:037 - Amor Glorioso
T:Letra: W. Spencer Walton (1850-1906)
T:Trad.: Salomão Luiz Ginsburg (1867-1927)
T:Música: Adoniram Judson Gordon (1836-1895)
M:6/8
L:1/8
Q:1/4=100
K:G 
V:1
D| "G"D2G G2A|"D"G3 F2G| "D7"A2^G A2B| "G"=G3- GzD| D2B B2c|"Am"B3 A2A| "D"A2F "A7"G2E| "D"D3- DzD| "D7"c2c "G"B2B|"D7"A2A "G"G2G| "A"E2E A2G| F3 "A7"E3| "D"D3- "D7"HD3 || "G"D2G G2A| "D"G3 F3| "D7"D2A A2B| "G"A3 G3 | B2c d2B| "D7"c2A "G"B2G| "D"A3- A2z| "G"B2"G7"d "C"c2A|"G/D"G2G "D7"F2A| "G"G3-Gz |]
w: 1.~Bus-cou-me com ter-nu-ra Je-sus, o bom Pas-tor;_ A-chou-me na mi-sé-ria, Sal-vou-me com a-mor;_ No céu can-ta-ram dea-le-gri-aOs an-jos, sim, em har-mo-ni-a. Oh, quea-mor glo-rio-so! Pre-ço tão gran-dio-so Que Je-sus por mim na cruz pa-gou;_ I-nau-di-ta gra-ça me mos-trou!_ 
w: 2.~Fe-ri-doea-ban-do-na-do, Je-sus me so-cor-reu;_ E se-gre-dou-me:"A-chei-te; Dea-go-raem dian-teés meu."_ Tão mei-ga voz ja-mais ou-vi; Pra-zer mai-or ja-mais sen-ti._ 
w: 3.~Je-sus mos-trou-meas cha-gas Queem meu lu-gar so-freu;_ Co-ro-a, mas dees-pi-nhos; A cruz que pa-de-ceu._ Que po-de-ri-aem mim a-char, Pra tais a-fron-tas su-por-tar?_
w: 4.~Mi-nhaal-maem-be-ve-ci-da, Seu ros-toa con-tem-plar,_ Re-cor-daas mui-tas bên-çãos Do seu a-mor sem par;_ Lou-vor e gló-riaea-do-ra-ção Tri-bu-ta-lhe meu co-ra-ção!_
w: 5.~En-quan-toas ho-ras pas-sam, Eu te-nho go-zoe paz,_ Ea-guar-doo meu bom Mes-tre, Que tão fe-liz me faz;_ Je-sus a mim vi-rá bus-car, Een-tão pra sem-prei-rei go-zar._     				                    
W: 
W: 
W: 1. Buscou-me com ternura
W: Jesus, o bom Pastor;
W: Achou-me na miséria,
W: Salvou-me com amor;
W: No céu cantaram de alegria
W: Os anjos, sim, em harmonia.
W: 
W:    (Estribilho)
W:    Oh, que amor glorioso!
W:    Preço tão grandioso                           
W:    Que Jesus por mim na cruz pagou;
W:    Inaudita graça me mostrou!
W: 
W: 2. Ferido e abandonado, 
W: Jesus me socorreu;
W: E segredou-me: "Achei-te;
W: De agora em diante és meu."
W: Tão meiga voz jamais ouvi;
W: Prazer maior jamais senti.
W: 
W: 
W: 
W: 3. Jesus mostrou-me as chagas
W: Que em meu lugar sofreu;
W: Coroa, mas de espinhos;
W: A cruz que padeceu.
W: Que poderia em mim achar,
W: Pra tais afrontas suportar?
W: 
W: 4. Minha alma embevecida,
W: Seu rosto a contemplar,
W: Recorda as muitas bênçãos
W: Do seu amor sem-par;
W: Louvor e glória e adoração
W: Tributa-lhe meu coração!
W: 
W: 5. Enquanto as horas passam,
W: Eu tenho gozo e paz,
W: E aguardo o meu bom Mestre,
W: Que tão feliz me faz;
W: Jesus a mim virá buscar,
W: E então pra sempre irei gozar.
W:         
W: 





